sass/icons/active-symbols/volatility/crash150 index/crash150 index.svg

<svg width="32" height="32" viewBox="0 0 32 32" fill="none" xmlns="http://www.w3.org/2000/svg">
<path d="M0 14.5856L6.99995 7.58568L9.99995 10.5857L17 3.58568L20 6.58568L26 0.585684V3.41411L20 9.41411L17 6.41411L9.99995 13.4141L6.99995 10.4141L0 17.4141V14.5856Z" fill="#0AA0B0"/>
<path d="M27.0001 22L31.7072 17.2929L30.293 15.8787L28.0001 18.1716L28.0001 9.53674e-06H26.5858L26.0001 0.585752L26.0001 18.1716L23.7072 15.8787L22.293 17.2929L27.0001 22Z" fill="#FF444F"/>
<path d="M14.9625 28.728C14.8398 28.9627 14.6185 29.08 14.2985 29.08C13.9785 29.08 13.7571 28.9627 13.6345 28.728C13.5118 28.4933 13.4505 28.1627 13.4505 27.736V26.68C13.4505 26.2533 13.5118 25.9227 13.6345 25.688C13.7571 25.4533 13.9785 25.336 14.2985 25.336C14.6185 25.336 14.8398 25.4533 14.9625 25.688C15.0851 25.9227 15.1465 26.2533 15.1465 26.68V27.736C15.1465 28.1627 15.0851 28.4933 14.9625 28.728Z" fill="#414652"/>
<path fill-rule="evenodd" clip-rule="evenodd" d="M2 22C0.895431 22 0 22.8954 0 24V30C0 31.1046 0.895431 32 2 32H17C18.1046 32 19 31.1046 19 30V24C19 22.8954 18.1046 22 17 22H2ZM12.6745 29.336C13.0265 29.8427 13.5678 30.096 14.2985 30.096C15.0291 30.096 15.5705 29.8427 15.9225 29.336C16.2745 28.8293 16.4505 28.12 16.4505 27.208C16.4505 26.296 16.2745 25.5867 15.9225 25.08C15.5705 24.5733 15.0291 24.32 14.2985 24.32C13.5678 24.32 13.0265 24.5733 12.6745 25.08C12.3225 25.5867 12.1465 26.296 12.1465 27.208C12.1465 28.12 12.3225 28.8293 12.6745 29.336ZM3.05672 30V29.032H4.56072V25.288H4.48872L3.35272 26.776L2.58472 26.176L3.92072 24.416H5.76072V29.032H6.94472V30H3.05672ZM11.2776 25.464H8.74159L8.62159 27.232H8.68559C8.73892 27.0987 8.79759 26.9787 8.86159 26.872C8.93093 26.76 9.01093 26.6667 9.10159 26.592C9.19226 26.512 9.30159 26.4507 9.42959 26.408C9.55759 26.3653 9.70959 26.344 9.88559 26.344C10.1256 26.344 10.3496 26.384 10.5576 26.464C10.7656 26.544 10.9469 26.6613 11.1016 26.816C11.2563 26.9653 11.3789 27.152 11.4696 27.376C11.5603 27.5947 11.6056 27.8427 11.6056 28.12C11.6056 28.4027 11.5576 28.6667 11.4616 28.912C11.3709 29.152 11.2323 29.36 11.0456 29.536C10.8643 29.712 10.6403 29.8507 10.3736 29.952C10.1069 30.048 9.80293 30.096 9.46159 30.096C9.18959 30.096 8.94959 30.0667 8.74159 30.008C8.53359 29.9493 8.34959 29.872 8.18959 29.776C8.02959 29.6747 7.89093 29.56 7.77359 29.432C7.65626 29.304 7.55493 29.168 7.46959 29.024L8.34159 28.336C8.46426 28.5547 8.61093 28.7413 8.78159 28.896C8.95226 29.0453 9.18159 29.12 9.46959 29.12C9.75759 29.12 9.97359 29.0373 10.1176 28.872C10.2669 28.7067 10.3416 28.488 10.3416 28.216V28.152C10.3416 27.896 10.2669 27.6933 10.1176 27.544C9.96826 27.3947 9.76293 27.32 9.50159 27.32C9.28292 27.32 9.10159 27.3653 8.95759 27.456C8.81893 27.5413 8.71226 27.6267 8.63759 27.712L7.65359 27.576L7.86159 24.416H11.2776V25.464Z" fill="#414652"/>
<path d="M3.05672 30V29.032H4.56072V25.288H4.48872L3.35272 26.776L2.58472 26.176L3.92072 24.416H5.76072V29.032H6.94472V30H3.05672Z" fill="white"/>
<path d="M11.2776 25.464H8.74159L8.62159 27.232H8.68559C8.73892 27.0987 8.79759 26.9787 8.86159 26.872C8.93093 26.76 9.01093 26.6667 9.10159 26.592C9.19226 26.512 9.30159 26.4507 9.42959 26.408C9.55759 26.3653 9.70959 26.344 9.88559 26.344C10.1256 26.344 10.3496 26.384 10.5576 26.464C10.7656 26.544 10.9469 26.6613 11.1016 26.816C11.2563 26.9653 11.3789 27.152 11.4696 27.376C11.5603 27.5947 11.6056 27.8427 11.6056 28.12C11.6056 28.4027 11.5576 28.6667 11.4616 28.912C11.3709 29.152 11.2323 29.36 11.0456 29.536C10.8643 29.712 10.6403 29.8507 10.3736 29.952C10.1069 30.048 9.80293 30.096 9.46159 30.096C9.18959 30.096 8.94959 30.0667 8.74159 30.008C8.53359 29.9493 8.34959 29.872 8.18959 29.776C8.02959 29.6747 7.89093 29.56 7.77359 29.432C7.65626 29.304 7.55493 29.168 7.46959 29.024L8.34159 28.336C8.46426 28.5547 8.61093 28.7413 8.78159 28.896C8.95226 29.0453 9.18159 29.12 9.46959 29.12C9.75759 29.12 9.97359 29.0373 10.1176 28.872C10.2669 28.7067 10.3416 28.488 10.3416 28.216V28.152C10.3416 27.896 10.2669 27.6933 10.1176 27.544C9.96826 27.3947 9.76293 27.32 9.50159 27.32C9.28292 27.32 9.10159 27.3653 8.95759 27.456C8.81893 27.5413 8.71226 27.6267 8.63759 27.712L7.65359 27.576L7.86159 24.416H11.2776V25.464Z" fill="white"/>
<path d="M14.2985 30.096C13.5678 30.096 13.0265 29.8427 12.6745 29.336C12.3225 28.8293 12.1465 28.12 12.1465 27.208C12.1465 26.296 12.3225 25.5867 12.6745 25.08C13.0265 24.5733 13.5678 24.32 14.2985 24.32C15.0291 24.32 15.5705 24.5733 15.9225 25.08C16.2745 25.5867 16.4505 26.296 16.4505 27.208C16.4505 28.12 16.2745 28.8293 15.9225 29.336C15.5705 29.8427 15.0291 30.096 14.2985 30.096ZM14.2985 29.08C14.6185 29.08 14.8398 28.9627 14.9625 28.728C15.0851 28.4933 15.1465 28.1627 15.1465 27.736V26.68C15.1465 26.2533 15.0851 25.9227 14.9625 25.688C14.8398 25.4533 14.6185 25.336 14.2985 25.336C13.9785 25.336 13.7571 25.4533 13.6345 25.688C13.5118 25.9227 13.4505 26.2533 13.4505 26.68V27.736C13.4505 28.1627 13.5118 28.4933 13.6345 28.728C13.7571 28.9627 13.9785 29.08 14.2985 29.08Z" fill="white"/>
</svg>

<svg xmlns="http://www.w3.org/2000/svg" width="32" height="32" fill="none"><path fill="#0AA0B0" d="m0 14.586 7-7 3 3 7-7 3 3 6-6v2.828l-6 6-3-3-7 7-3-3-7 7z"/><path fill="#FF444F" d="m27 22 4.707-4.707-1.414-1.414L28 18.172V0h-1.414L26 .586v17.586l-2.293-2.293-1.414 1.414z"/><path fill="#414652" d="M14.963 28.728q-.184.352-.664.352t-.665-.352q-.183-.352-.184-.992V26.68q0-.64.184-.992.185-.352.665-.352.479 0 .664.352.184.352.184.992v1.056q0 .64-.184.992"/><path fill="#414652" fill-rule="evenodd" d="M2 22a2 2 0 0 0-2 2v6a2 2 0 0 0 2 2h15a2 2 0 0 0 2-2v-6a2 2 0 0 0-2-2zm10.675 7.336q.527.76 1.624.76 1.095 0 1.624-.76.527-.76.528-2.128 0-1.368-.529-2.128-.528-.76-1.623-.76-1.096 0-1.624.76-.53.76-.529 2.128 0 1.368.528 2.128M3.057 30v-.968H4.56v-3.744h-.072l-1.136 1.488-.768-.6 1.336-1.76h1.84v4.616h1.184V30zm8.22-4.536H8.743l-.12 1.768h.064q.08-.2.176-.36.103-.168.24-.28.136-.12.328-.184t.456-.064q.36 0 .672.12t.544.352a1.6 1.6 0 0 1 .368.56q.136.328.136.744 0 .424-.144.792-.137.36-.416.624a1.9 1.9 0 0 1-.672.416q-.4.144-.912.144a2.7 2.7 0 0 1-.72-.088 2.3 2.3 0 0 1-.552-.232 2 2 0 0 1-.416-.344 2.5 2.5 0 0 1-.304-.408l.872-.688q.183.328.44.56.255.224.688.224t.648-.248q.224-.248.224-.656v-.064q0-.384-.224-.608-.225-.224-.616-.224-.329 0-.544.136-.21.127-.32.256l-.984-.136.208-3.16h3.416z" clip-rule="evenodd"/><path fill="#fff" d="M3.057 30v-.968H4.56v-3.744h-.072l-1.136 1.488-.768-.6 1.336-1.76h1.84v4.616h1.184V30zM11.278 25.464H8.742l-.12 1.768h.064q.08-.2.176-.36.103-.168.24-.28.136-.12.328-.184t.456-.064q.36 0 .672.12t.544.352a1.6 1.6 0 0 1 .368.56q.136.328.136.744 0 .424-.144.792-.137.36-.416.624a1.9 1.9 0 0 1-.672.416q-.4.144-.912.144a2.7 2.7 0 0 1-.72-.088 2.3 2.3 0 0 1-.552-.232 2 2 0 0 1-.416-.344 2.5 2.5 0 0 1-.304-.408l.872-.688q.183.328.44.56.255.224.688.224t.648-.248q.224-.248.224-.656v-.064q0-.384-.224-.608-.225-.224-.616-.224-.329 0-.544.136-.21.127-.32.256l-.984-.136.208-3.16h3.416zM14.299 30.096q-1.096 0-1.624-.76-.53-.76-.529-2.128 0-1.368.528-2.128.529-.76 1.625-.76 1.095 0 1.624.76.527.76.528 2.128 0 1.368-.529 2.128-.528.76-1.623.76m0-1.016q.479 0 .664-.352.184-.352.184-.992V26.68q0-.64-.184-.992t-.664-.352-.665.352q-.183.352-.184.992v1.056q0 .64.184.992.185.352.665.352"/></svg>
